X: 40069
T: Thrush In The Bush, The
R: jig
M: 6/8
K: Gmajor
|:D|GBG DB,G,|GBd gdB|AEE cEE|AcB AGE|
DB,D GBd|gfg dcB|ABc dcA|BGF G2:|
C|B,DG Bdf|gfg dcB|AEE cEE|AcB AGE|
DB,D GBd|gfg dcB|ABc dcA|BGF Gz||
D/C/|B,DG Bdf|gfg dcB|AEE cEE|AcB ADC|
B,DG Bdf|gfg dBc|dbd cac|BAF G2||

